svgs/thin/pause.svg

<svg xmlns="http://www.w3.org/2000/svg" viewBox="0 0 320 512"><!--! Font Awesome Pro 6.6.0 by @fontawesome - https://fontawesome.com License - https://fontawesome.com/license (Commercial License) Copyright 2024 Fonticons, Inc. --><path d="M48 80c-17.7 0-32 14.3-32 32l0 288c0 17.7 14.3 32 32 32l32 0c17.7 0 32-14.3 32-32l0-288c0-17.7-14.3-32-32-32L48 80zM0 112C0 85.5 21.5 64 48 64l32 0c26.5 0 48 21.5 48 48l0 288c0 26.5-21.5 48-48 48l-32 0c-26.5 0-48-21.5-48-48L0 112zM240 80c-17.7 0-32 14.3-32 32l0 288c0 17.7 14.3 32 32 32l32 0c17.7 0 32-14.3 32-32l0-288c0-17.7-14.3-32-32-32l-32 0zm-48 32c0-26.5 21.5-48 48-48l32 0c26.5 0 48 21.5 48 48l0 288c0 26.5-21.5 48-48 48l-32 0c-26.5 0-48-21.5-48-48l0-288z"/></svg>

<svg xmlns="http://www.w3.org/2000/svg" viewBox="0 0 320 512"><!--! Font Awesome Pro 6.4.2 by @fontawesome - https://fontawesome.com License - https://fontawesome.com/license (Commercial License) Copyright 2023 Fonticons, Inc. --><path d="M48 80c-17.7 0-32 14.3-32 32V400c0 17.7 14.3 32 32 32H80c17.7 0 32-14.3 32-32V112c0-17.7-14.3-32-32-32H48zM0 112C0 85.5 21.5 64 48 64H80c26.5 0 48 21.5 48 48V400c0 26.5-21.5 48-48 48H48c-26.5 0-48-21.5-48-48V112zM240 80c-17.7 0-32 14.3-32 32V400c0 17.7 14.3 32 32 32h32c17.7 0 32-14.3 32-32V112c0-17.7-14.3-32-32-32H240zm-48 32c0-26.5 21.5-48 48-48h32c26.5 0 48 21.5 48 48V400c0 26.5-21.5 48-48 48H240c-26.5 0-48-21.5-48-48V112z"/></svg>
